Origami/32x32/apps/vbam.svg

<svg width="32" height="32" version="1" xmlns="http://www.w3.org/2000/svg">
 <path d="m11.902832 8c-1.460419 0-2.7639649 0.0808-3.6606445 1h-2.7421875c-2.493 0-4.5 2.206693-4.5 4.699693v6.600614c0 2.493 2.007 4.699693 4.5 4.699693h2.7421875c0.8966796 0.919178 2.2002255 1 3.6606445 1h8.194336c1.460419 0 2.763965-0.0808 3.660644-1h2.742188c2.493 0 4.5-2.206693 4.5-4.699693v-6.600614c0-2.493-2.007-4.699693-4.5-4.699693h-2.742188c-0.896679-0.9191777-2.200225-1-3.660644-1z" style="opacity:.2"/>
 <path d="m11.902832 7c-1.460419 0-2.7639649 0.0808-3.6606445 1h-2.7421875c-2.493 0-4.5 2.206693-4.5 4.699693v6.600614c0 2.493 2.007 4.699693 4.5 4.699693h2.7421875c0.8966796 0.919178 2.2002255 1 3.6606445 1h8.194336c1.460419 0 2.763965-0.0808 3.660644-1h2.742188c2.493 0 4.5-2.206693 4.5-4.699693v-6.600614c0-2.493-2.007-4.699693-4.5-4.699693h-2.742188c-0.896679-0.9191777-2.200225-1-3.660644-1z" style="fill:#7f4fc8"/>
 <circle cx="28.5" cy="15.5" r="1.5" style="opacity:.2"/>
 <circle cx="28.5" cy="14.5" r="1.5" style="fill:#ffffff"/>
 <circle transform="rotate(90)" cx="17.5" cy="-24.5" r="1.5" style="opacity:.2"/>
 <circle transform="rotate(90)" cx="16.5" cy="-24.5" r="1.5" style="fill:#ffffff"/>
 <rect x="10" y="10" width="12" height="12" style="fill:#7b92ed"/>
 <circle transform="rotate(90)" cx="11" cy="-27" r="1" style="opacity:.2"/>
 <circle transform="rotate(90)" cx="10" cy="-27" r="1" style="fill:#52ff41"/>
 <path d="m5 13c-0.554 0-1 0.446-1 1v1h-1c-0.554 0-1 0.446-1 1v1c0 0.554 0.446 1 1 1h1v1c0 0.554 0.446 1 1 1h1c0.554 0 1-0.446 1-1v-1h1c0.554 0 1-0.446 1-1v-1c0-0.554-0.446-1-1-1h-1v-1c0-0.554-0.446-1-1-1h-1z" style="opacity:.2"/>
 <path d="m5 12c-0.554 0-1 0.446-1 1v1h-1c-0.554 0-1 0.446-1 1v1c0 0.554 0.446 1 1 1h1v1c0 0.554 0.446 1 1 1h1c0.554 0 1-0.446 1-1v-1h1c0.554 0 1-0.446 1-1v-1c0-0.554-0.446-1-1-1h-1v-1c0-0.554-0.446-1-1-1h-1z" style="fill:#ffffff"/>
 <path d="m11.902344 7c-1.460419 0-2.7634769 0.0808-3.6601565 1h-2.7421875c-2.493 0-4.5 2.206219-4.5 4.699219v1c0-2.493 2.007-4.699219 4.5-4.699219h2.7421875c0.8966796-0.9192 2.1997375-1 3.6601565-1h8.195312c1.460419 0 2.763477 0.0808223 3.660156 1h2.742188c2.493 0 4.5 2.206219 4.5 4.699219v-1c0-2.493-2.007-4.699219-4.5-4.699219h-2.742188c-0.896679-0.9191777-2.199737-1-3.660156-1h-8.195312z" style="fill:#ffffff;opacity:.1"/>
</svg>

<svg xmlns="http://www.w3.org/2000/svg" width="32" height="32" version="1">
 <path style="opacity:0.2" d="M 11.902832,8 C 10.442413,8 9.1388671,8.0808 8.2421875,9 L 5.5,9 C 3.007,9 1,11.206693 1,13.699693 l 0,6.600614 C 1,22.793307 3.007,25 5.5,25 l 2.7421875,0 c 0.8966796,0.919178 2.2002255,1 3.6606445,1 l 8.194336,0 c 1.460419,0 2.763965,-0.0808 3.660644,-1 L 26.5,25 c 2.493,0 4.5,-2.206693 4.5,-4.699693 l 0,-6.600614 C 31,11.206693 28.993,9 26.5,9 L 23.757812,9 C 22.861133,8.0808223 21.557587,8 20.097168,8 Z"/>
 <path style="fill:#7f4fc8" d="m 11.902832,7 c -1.460419,0 -2.7639649,0.0808 -3.6606445,1 L 5.5,8 C 3.007,8 1,10.206693 1,12.699693 l 0,6.600614 C 1,21.793307 3.007,24 5.5,24 l 2.7421875,0 c 0.8966796,0.919178 2.2002255,1 3.6606445,1 l 8.194336,0 c 1.460419,0 2.763965,-0.0808 3.660644,-1 L 26.5,24 c 2.493,0 4.5,-2.206693 4.5,-4.699693 l 0,-6.600614 C 31,10.206693 28.993,8 26.5,8 L 23.757812,8 C 22.861133,7.0808223 21.557587,7 20.097168,7 Z"/>
 <circle style="opacity:0.2" cx="28.5" cy="15.5" r="1.5"/>
 <circle style="fill:#ffffff" cx="28.5" cy="14.5" r="1.5"/>
 <circle style="opacity:0.2" cx="17.5" cy="-24.5" r="1.5" transform="matrix(0,1,-1,0,0,0)"/>
 <circle style="fill:#ffffff" cx="16.5" cy="-24.5" r="1.5" transform="matrix(0,1,-1,0,0,0)"/>
 <rect style="fill:#7b92ed" width="12" height="12" x="10" y="10"/>
 <circle style="opacity:0.2" cx="11" cy="-27" r="1" transform="matrix(0,1,-1,0,0,0)"/>
 <circle style="fill:#52ff41" cx="10" cy="-27" r="1" transform="matrix(0,1,-1,0,0,0)"/>
 <path style="opacity:0.2" d="m 5,13 c -0.554,0 -1,0.446 -1,1 l 0,1 -1,0 c -0.554,0 -1,0.446 -1,1 l 0,1 c 0,0.554 0.446,1 1,1 l 1,0 0,1 c 0,0.554 0.446,1 1,1 l 1,0 c 0.554,0 1,-0.446 1,-1 l 0,-1 1,0 c 0.554,0 1,-0.446 1,-1 L 9,16 C 9,15.446 8.554,15 8,15 L 7,15 7,14 C 7,13.446 6.554,13 6,13 l -1,0 z"/>
 <path style="fill:#ffffff" d="m 5,12 c -0.554,0 -1,0.446 -1,1 l 0,1 -1,0 c -0.554,0 -1,0.446 -1,1 l 0,1 c 0,0.554 0.446,1 1,1 l 1,0 0,1 c 0,0.554 0.446,1 1,1 l 1,0 c 0.554,0 1,-0.446 1,-1 l 0,-1 1,0 c 0.554,0 1,-0.446 1,-1 L 9,15 C 9,14.446 8.554,14 8,14 L 7,14 7,13 C 7,12.446 6.554,12 6,12 l -1,0 z"/>
 <path style="fill:#ffffff;opacity:0.1" d="M 11.902344 7 C 10.441925 7 9.1388671 7.0808 8.2421875 8 L 5.5 8 C 3.007 8 1 10.206219 1 12.699219 L 1 13.699219 C 1 11.206219 3.007 9 5.5 9 L 8.2421875 9 C 9.1388671 8.0808 10.441925 8 11.902344 8 L 20.097656 8 C 21.558075 8 22.861133 8.0808223 23.757812 9 L 26.5 9 C 28.993 9 31 11.206219 31 13.699219 L 31 12.699219 C 31 10.206219 28.993 8 26.5 8 L 23.757812 8 C 22.861133 7.0808223 21.558075 7 20.097656 7 L 11.902344 7 z"/>
</svg>
